!!!!SEGMENT: pl-wtm--r-258-m--006_moniuszko-stanislaw--msza-sanctus.krn
!!!cenid: 18xx:2540
!!!COM: Moniuszko, Stanisław
!!!COM-rismID: pe30008351
!!!CDT: 1819/05/05-1872/06/04
!!!CNT: Polish
!!!OPR: Msza
!!!OTL: Sanctus
!!!OMV: 006
!!!PDT: 1870
!!!AGN: Sacred; Mass
!!!SMS-siglum: PL-Wtm
!!!SMS-shelfmark: R 258/M
!!!SMS-shelfwork: 001-006 M
!!!SMS-variant:
!!!SMS-altvar:
!!!NIFC-rismSourceID: 1001095348
!!!NIFC-islandoraID:
!!!URL-pdf-islandora:
!!!URL-scan:
!!!ONB-nifc: UWAGA: części Mszy: 1. Kyrie, 2. Et in terra, 3. Graduale, 4. Credo, 5. Offertorium, 6. Sanctus, 7. Benedictus, 8. Agnus
!!!AIN: 1 alto 1 empty 1 organ 1 soprn 1 tenor
!!!key:
**kern	**kern	**dynam	**kern	**text	**dynam	**kern	**text	**dynam	**kern	**text	**dynam	**kern	**text	**dynam
*part5	*part5	*part5	*part4	*part4	*part4	*part3	*part3	*part3	*part2	*part2	*part2	*part1	*part1	*part1
*staff6	*staff5	*	*staff4	*staff4	*	*staff3	*staff3	*	*staff2	*staff2	*	*staff1	*staff1	*
*Iorgan	*Iorgan	*	*Iempty	*	*	*Itenor	*	*	*Ialto	*	*	*Isoprn	*	*
*I"Organy	*I"Organy	*	*I"[Bas]	*	*	*I"[Tenor]	*	*	*I"[Alt]	*	*	*I"[Sopran]	*	*
*I'org	*I'org	*	*	*	*	*	*	*	*	*	*	*	*	*
*clefF4	*clefG2	*	*clefF4	*	*	*clefG2	*	*	*clefG2	*	*	*clefG2	*	*
*k[]	*k[]	*	*k[]	*	*	*k[]	*	*	*k[]	*	*	*k[]	*	*
*A-:	*A-:	*	*A-:	*	*	*A-:	*	*	*A-:	*	*	*A-:	*	*
*M2/2	*M2/2	*	*M2/2	*	*	*M2/2	*	*	*M2/2	*	*	*M2/2	*	*
*met(c|)	*met(c|)	*	*met(c|)	*	*	*met(c|)	*	*	*met(c|)	*	*	*met(c|)	*	*
=1	=1	=1	=1	=1	=1	=1	=1	=1	=1	=1	=1	=1	=1	=1
*all\right	*all\right	*	*all\right	*	*	*all\right	*	*	*all\right	*	*	*all\right	*	*
*^	*	*	*	*	*	*	*	*	*	*	*	*	*	*
*	*	*	*	*2\right	*	*	*2\right	*	*	*	*	*	*	*	*
!	!LO:TX:a:t=P:problem=w metrum przekreślenie i kropka na niebiesko	!LO:TX:a:t=P:problem=w metrum przekreślenie i kropka na niebiesko	!	!LO:TX:a:t=P:problem=w metrum przekreślenie i kropka na niebiesko	!	!	!LO:TX:a:t=P:problem=w metrum przekreślenie i kropka na niebiesko	!	!	!LO:TX:a:t=P:problem=w metrum przekreślenie i kropka na niebiesko	!	!	!LO:TX:a:t=P:problem=w metrum przekreślenie i kropka na niebiesko	!	!
!	!	!	!LO:DY:rj	!	!	!LO:DY:a:rj	!	!	!LO:DY:a:rj	!	!	!LO:DY:a:rj	!LO:TX:a:t=Largo:color=blue	!	!LO:DY:a:rj
2B 2G#X/	1r	2g#X 2d#X/	mf	2G#X^\	.	mf	2b^\	.	mf	2d#X^/	.	mf	2g#X^/	San-	mf
2c#X 2F#X/	.	2a#X 2f#X/	.	2F#X^\	.	.	2cc#X^\	.	.	2f#X^/	.	.	2a#X^/	-ctus	.
=2	=2	=2	=2	=2	=2	=2	=2	=2	=2	=2	=2	=2	=2	=2	=2
*	*	*	*	*	*	*	*	*	*	*	*	*	*2\right	*	*
1B 1F#X 1BB	1r	1b 1f#X 1d#X	.	2.BB^/	.	.	2.dd#X^\	.	.	2.f#X^/	.	.	2.b^\	Sanc-	.
.	.	.	.	4BB/	.	.	4dd#\	.	.	4B/	.	.	4b\	-tus	.
=3	=3	=3	=3	=3	=3	=3	=3	=3	=3	=3	=3	=3	=3	=3	=3
2B 2E/	1r	2g#X 2e/	.	4.En\	.	.	4.ee\	.	.	4.B/	.	.	4.g#X/	San-	.
.	.	.	.	8E\	.	.	8b\	.	.	8e/	.	.	8g#/	-ctus	.
!	!	!	!	!	!	!	!	!	!	!	!	!	!LO:ACC:color=blue	!	!
[4.A 4.AA/	.	4.a 4.e 4.c#X/	.	4.AA/	.	.	4.cc#X\	.	.	4.e/	.	.	4.an/	Do-	.
8A] 8D/	.	8f#X 8d/	.	8D/	.	.	8dd\	.	.	8d/	.	.	8f#X/	-mi-	.
=4	=4	=4	=4	=4	=4	=4	=4	=4	=4	=4	=4	=4	=4	=4	=4
1A 1D;	1r	1f#X 1d;	.	1D;	.	.	1a;	.	.	1d;	.	.	1f#X;	-nus	.
!	!	!	!	!	!	!LO:DY:a:color=blue	!	!	!LO:DY:a:color=blue	!	!	!LO:DY:a:color=blue	!	!	!LO:DY:a:color=blue
.	.	.	p	.	.	p	.	.	p	.	.	p	.	.	p
=5	=5	=5	=5	=5	=5	=5	=5	=5	=5	=5	=5	=5	=5	=5	=5
*	*	*	*	*	*	*	*^	*	*	*	*	*	*	*	*
2A 2D/	1r	2f#X 2d/	.	2D\	.	.	2a/	2.ryy	.	.	2d/	.	.	2f#X/	Do-	.
2B-X 2C/	.	2g 2e/	.	4.C/	.	.	4.b-X/	.	.	.	4.e/	.	.	4.g/	-mi-	.
.	.	.	.	.	.	.	.	8ryy	.	.	.	.	.	.	.	.
.	.	.	.	8C/	.	.	8cc/	8b-\	.	.	8e/	.	.	8g/	-nus	.
=6	=6	=6	=6	=6	=6	=6	=6	=6	=6	=6	=6	=6	=6	=6	=6	=6
*	*	*	*	*^	*	*	*	*	*	*	*	*	*	*	*	*
1A 1F	1r	2.a [>2.f [<2.c/	.	2.F 2.FF^/	2.ryy	.	.	2.cc/	2.a\	.	.	2.f/	.	.	2.a/	De-	.
.	.	4f] 4c/]	.	4F/	4F\	.	.	4cc/	4cc\	.	.	4f/	.	.	4f/@	-us	.
*	*	*	*	*v	*v	*	*	*	*	*	*	*	*	*	*	*	*
*	*	*	*	*	*	*	*v	*v	*	*	*	*	*	*	*	*
=7	=7	=7	=7	=7	=7	=7	=7	=7	=7	=7	=7	=7	=7	=7	=7
[2B-X 2BB-X/	1r	2f 2d/	.	4.BB-X/	.	.	4.b-X/	.	.	4.d/	.	.	4.f/	De-	.
.	.	.	.	8BB-/	.	.	8b-/	.	.	8d/	.	.	8f/	-us	.
4.B-] 4.E-X/	.	4.g 4.e-X/	.	4.E-X\	.	.	4.b-/	.	.	4.e-X/	.	.	4.g/	Sa-	.
8A-X 8AA-X/	.	8e- 8c/	.	8AA-X/	.	.	8a-X/	.	.	8c/	.	.	8e-X/	-ba-	.
!!LO:LB:g=original
=8	=8	=8	=8	=8	=8	=8	=8	=8	=8	=8	=8	=8	=8	=8	=8
1A-X 1AA-X	1r	1e-X 1c	.	1AA-X	.	.	1a-X	.	.	1c	.	.	1e-X	-oth !	.
*v	*v	*	*	*	*	*	*	*	*	*	*	*	*	*	*
=9||	=9||	=9||	=9||	=9||	=9||	=9||	=9||	=9||	=9||	=9||	=9||	=9||	=9||	=9||
*k[b-e-a-d-]	*k[b-e-a-d-]	*	*k[b-e-a-d-]	*	*	*k[b-e-a-d-]	*	*	*k[b-e-a-d-]	*	*	*k[b-e-a-d-]	*	*
*^	*	*	*	*	*	*	*	*	*	*	*	*	*	*
*	*^	*	*	*	*	*	*	*	*	*	*	*	*	*	*
*	*	*	*ped	*	*	*	*	*	*	*	*	*	*	*	*	*
!	!	!	!	!	!	!	!	!	!	!	!	!	!	!LO:TX:a:i:t=Solo	!	!
!	!	!	!	!	!LO:TX:a:i:t=Solo	!	!	!LO:TX:a:i:t=Solo	!	!	!LO:TX:a:i:t=Solo	!	!	!LO:TX:a:t=piu mosso.:color=blue	!	!
2A-/	4AA-\	1rDDD	8r	.	2A-\	.	.	2cc\	.	.	2e-/	.	.	2a-/	Ple-	.
.	.	.	8c/L	.	.	.	.	.	.	.	.	.	.	.	.	.
.	4r	.	8d-/	.	.	.	.	.	.	.	.	.	.	.	.	.
.	.	.	8a-/J	.	.	.	.	.	.	.	.	.	.	.	.	.
2E-/	4EE-\	.	8r	.	4.E-\	.	.	4.ee-\	.	.	4.g/	.	.	4.b-\	-ni	.
.	.	.	8B-/L	.	.	.	.	.	.	.	.	.	.	.	.	.
.	4r	.	8e-/	.	.	.	.	.	.	.	.	.	.	.	.	.
.	.	.	8b-/J	.	8E-\	.	.	8ee-\	.	.	8g/	.	.	8a-\	sunt	.
*	*v	*v	*	*	*	*	*	*	*	*	*	*	*	*	*	*
=10	=10	=10	=10	=10	=10	=10	=10	=10	=10	=10	=10	=10	=10	=10	=10
2AA-/	1r	8r	.	2AA-/	.	.	2ee-\	.	.	2a-/	.	.	2cc\	coe-	.
.	.	8c/L	.	.	.	.	.	.	.	.	.	.	.	.	.
.	.	8e-/	.	.	.	.	.	.	.	.	.	.	.	.	.
.	.	8a-/J	.	.	.	.	.	.	.	.	.	.	.	.	.
2C/	.	8cc/L	.	4C/	.	.	4ee-\	.	.	4a-/	.	.	4ee-\	-li,	.
.	.	8a-/	.	.	.	.	.	.	.	.	.	.	.	.	.
.	.	8e-/	.	4r	.	.	4r	.	.	4r	.	.	4r	.	.
.	.	8c/J	.	.	.	.	.	.	.	.	.	.	.	.	.
=11	=11	=11	=11	=11	=11	=11	=11	=11	=11	=11	=11	=11	=11	=11	=11
*	*^	*	*	*	*	*	*	*	*	*	*	*	*	*	*
2F/	4FF/	1rDD	8r	.	2F\	.	.	2cc\	.	.	2f/	.	.	2a-/	coe-	.
.	.	.	8c/L	.	.	.	.	.	.	.	.	.	.	.	.	.
.	4r	.	8f/	.	.	.	.	.	.	.	.	.	.	.	.	.
.	.	.	8a-/J	.	.	.	.	.	.	.	.	.	.	.	.	.
2E-/	4EE-/	.	8r	.	4.E-\	.	.	4.dd-\	.	.	4.g/	.	.	4.b-\	-li	.
.	.	.	8d-/L	.	.	.	.	.	.	.	.	.	.	.	.	.
.	4r	.	8g/	.	.	.	.	.	.	.	.	.	.	.	.	.
.	.	.	8b-/J	.	8E-\	.	.	8dd-\	.	.	8g/	.	.	8b-\	et	.
*	*v	*v	*	*	*	*	*	*	*	*	*	*	*	*	*	*
=12	=12	=12	=12	=12	=12	=12	=12	=12	=12	=12	=12	=12	=12	=12	=12
2.AA-/	1r	8r	.	2.AA-/	.	.	2.cc\	.	.	2.a-/	.	.	2.cc\	ter-	.
.	.	8c/L	.	.	.	.	.	.	.	.	.	.	.	.	.
.	.	8e-/	.	.	.	.	.	.	.	.	.	.	.	.	.
.	.	8a-/J	.	.	.	.	.	.	.	.	.	.	.	.	.
.	.	8cc/L	.	.	.	.	.	.	.	.	.	.	.	.	.
.	.	8a-/	.	.	.	.	.	.	.	.	.	.	.	.	.
(4C 4CC/	.	8ee- 8e-/	.	4C/	.	.	4ee-\	.	.	4a-/	.	.	4ee-\	-ra	.
.	.	8a-/J	.	.	.	.	.	.	.	.	.	.	.	.	.
=13	=13	=13	=13	=13	=13	=13	=13	=13	=13	=13	=13	=13	=13	=13	=13
4D- 4DD-/	1r	8ffL 8f/	.	(4D-/	.	.	(4cc\	.	.	2a-/	.	.	(4ff\	ple-	.
.	.	8a-/	.	.	.	.	.	.	.	.	.	.	.	.	.
4C 4CC/	.	8ee- 8d-/	.	4C/)	.	.	4ee-\)	.	.	.	.	.	4ee-\)	.	.
.	.	8a-/J	.	.	.	.	.	.	.	.	.	.	.	.	.
4E- 4EE-/	.	8cc/L	.	4E-\	.	.	4ee-\@	.	.	4a-/@	.	.	4cc\	-ni	.
.	.	8e-/	.	.	.	.	.	.	.	.	.	.	.	.	.
4A- 4AA-/	.	8a-/	.	4A-\	.	.	4cc\	.	.	4e-/	.	.	4a-\	sunt	.
.	.	8c/J	.	.	.	.	.	.	.	.	.	.	.	.	.
=14	=14	=14	=14	=14	=14	=14	=14	=14	=14	=14	=14	=14	=14	=14	=14
*	*^	*	*	*	*	*	*	*	*	*	*	*	*	*	*
2D-/	4DD-\	1rDD	8fL 8d-/	.	2D-\	.	.	2a-/	.	.	2d-/	.	.	2f/	glo-	.
.	.	.	8A-/	.	.	.	.	.	.	.	.	.	.	.	.	.
.	4r	.	8d-/	.	.	.	.	.	.	.	.	.	.	.	.	.
.	.	.	8f/J	.	.	.	.	.	.	.	.	.	.	.	.	.
2E-/)	4EE-\	.	8e-L 8G/	.	4E-\	.	.	4g/	.	.	4B-/	.	.	4e-/	-ri-	.
.	.	.	8B-/	.	.	.	.	.	.	.	.	.	.	.	.	.
.	4r	.	8e-/	.	4E-\	.	.	4g/	.	.	4e-/	.	.	4e-/	-a	.
.	.	.	8g/J	.	.	.	.	.	.	.	.	.	.	.	.	.
*	*v	*v	*	*	*	*	*	*	*	*	*	*	*	*	*	*
!!LO:PB:g=original
=15	=15	=15	=15	=15	=15	=15	=15	=15	=15	=15	=15	=15	=15	=15	=15
!	!	!	!	!	!	!	!	!	!	!	!	!	!LO:TX:a:t=P:problem=na skanie 0020 pokreślone fragmenty, odtąd skan 0021	!	!
2F 2BB-/	1r	8a-/L	.	(>2BB-/	.	.	(2f/	.	.	(2dn/	.	.	(2a-/	tu-	.
.	.	8B-/	.	.	.	.	.	.	.	.	.	.	.	.	.
.	.	8dn/	.	.	.	.	.	.	.	.	.	.	.	.	.
.	.	8a-/J	.	.	.	.	.	.	.	.	.	.	.	.	.
2G 2E-/	.	8b-/L	.	2E-\)	.	.	2g/)	.	.	2d-X/)	.	.	2b-/)	.	.
.	.	8d-X/	.	.	.	.	.	.	.	.	.	.	.	.	.
.	.	8e-/	.	.	.	.	.	.	.	.	.	.	.	.	.
.	.	8b-/J	.	.	.	.	.	.	.	.	.	.	.	.	.
=16	=16	=16	=16	=16	=16	=16	=16	=16	=16	=16	=16	=16	=16	=16	=16
*	*	*^	*	*^	*	*	*^	*	*	*^	*	*	*^	*	*
2A-/	2r	8cc/L	2.ryy	.	[<2AA-/	2rc	.	.	[2a-/	2raa	.	.	[2c/	2raa	.	.	[2cc\	2rgg	-a	.
.	.	8c/	.	.	.	.	.	.	.	.	.	.	.	.	.	.	.	.	.	.
.	.	8e-/	.	.	.	.	.	.	.	.	.	.	.	.	.	.	.	.	.	.
.	.	8a-/J	.	.	.	.	.	.	.	.	.	.	.	.	.	.	.	.	.	.
!	!LO:TX:t=CB:color=green:na pięciolinii	!	!	!	!	!	!	!	!	!	!	!	!	!	!	!	!	!	!	!
4rGG	4rB	4cc/	.	.	8AA-/]	4rc	.	.	8a-/]	4raa	.	.	8c/]	4raa	.	.	8cc\]	4rgg	.	.
.	.	.	.	.	8r	.	.	.	8rc	.	.	.	8r	.	.	.	8r	.	.	.
!	!	!	!	!LO:DY:rj	!LO:TX:a:i:t=tutti	!	!	!LO:DY:b:rj	!LO:TX:a:i:t=tutti	!	!	!LO:DY:b:rj	!	!LO:TX:a:i:t=tutti	!	!LO:DY:b:rj	!LO:TX:a:i:t=tutti	!	!	!LO:DY:a:rj
4c 4A-/	4C\	4a-/	4e-\	ff	4c\	4ryy	.	ff	4ee-\	4ryy	.	ff	4a-/	4ryy	.	ff	4a-/	4ryy	Ho-	ff
*	*	*	*	*	*v	*v	*	*	*	*	*	*	*v	*v	*	*	*v	*v	*	*
*	*	*	*	*	*	*	*	*v	*v	*	*	*	*	*	*	*	*
=17	=17	=17	=17	=17	=17	=17	=17	=17	=17	=17	=17	=17	=17	=17	=17	=17
!LO:TX:t=P:problem=pomazane nuty	!	!	!	!	!	!	!	!	!	!	!	!	!	!	!	!
4c/	4D-\	2a-/	4f\	.	4d-\	.	.	4ff\	.	.	4.a-/	.	.	4.a-/	-san-	.
4c 4A-/	4C\	.	4e-\	.	4c\	.	.	4ee-\	.	.	.	.	.	.	.	.
.	.	.	.	.	.	.	.	.	.	.	8a-/	.	.	8a-/	-na	.
4c 4A-/	4AA-\	4cc/	4a- 4e-\	.	4A-\	.	.	4cc\	.	.	4a-/	.	.	4cc\	in	.
4c 4A-/	4E-\	4ryy	4ee- 4a- 4e-/	.	4E-\	.	.	4a-\@	.	.	4cc/@	.	.	4ee-\	ex-	.
*	*	*v	*v	*	*	*	*	*	*	*	*	*	*	*	*	*
=18	=18	=18	=18	=18	=18	=18	=18	=18	=18	=18	=18	=18	=18	=18	=18
*	*2\left	*2\right	*	*	*	*	*	*	*	*	*	*	*	*	*
4.c 4.A- 4.C/	2C\	2aa- 2cc 2a-\	.	(4.C\	.	.	2ee-\	.	.	2a-/	.	.	2aa- 2ee-\	-cel-	.
8E-/	.	.	.	8E-\)	.	.	.	.	.	.	.	.	.	.	.
*	*2\right	*	*	*	*	*	*	*	*	*	*	*	*	*	*
4A-/	2AA-\	8cc 8a-/	.	8A-\	.	.	8cc\	.	.	8a-/	.	.	8cc\	-sis !	.
.	.	8r	.	8r	.	.	8r	.	.	8r	.	.	8r	.	.
4c 4A-/	.	4cc 4a- 4e-/	.	4c\	.	.	4ee- 4cc\	.	.	4a-/	.	.	4cc\	Ho-	.
*v	*v	*	*	*	*	*	*	*	*	*	*	*	*	*	*
=19	=19	=19	=19	=19	=19	=19	=19	=19	=19	=19	=19	=19	=19	=19
*	*^	*	*	*	*	*	*	*	*	*	*	*	*	*
1d- 1B- 1E- 1EE-	1ee- 1e-	(2a-\	.	1E-	.	.	1dd- 1b-	.	.	(2a-/	.	.	1ee-	-san-	.
.	.	2g\	.	.	.	.	.	.	.	2g/)	.	.	.	.	.
=20	=20	=20	=20	=20	=20	=20	=20	=20	=20	=20	=20	=20	=20	=20	=20
*^	*	*	*	*^	*	*	*	*	*	*	*	*	*	*	*
*	*^	*	*	*	*	*	*	*	*	*	*	*	*	*	*	*	*
1c 1A-	2AA-\	1rGG	2cc 2a-/	2e-\)	.	2A-\	1rg	.	.	2cc 2a-\	.	.	2a-/	.	.	2a-/@	-na !	.
.	4rA	.	2r	2ryy	.	4r	.	.	.	2r	.	.	2r	.	.	2r	.	.
!	!	!	!	!	!LO:DY:rj	!LO:TX:a:i:t=Solo	!	!	!	!	!	!	!	!	!	!	!	!
.	(>4E-/	.	.	.	pp	4E-\	.	et	.	.	.	.	.	.	.	.	.	.
*	*v	*v	*	*	*	*v	*v	*	*	*	*	*	*	*	*	*	*	*
*	*	*v	*v	*	*	*	*	*	*	*	*	*	*	*	*	*
=21	=21	=21	=21	=21	=21	=21	=21	=21	=21	=21	=21	=21	=21	=21	=21
4F/	1rGG	1r	.	(4F\	ple-	.	1r	.	.	1r	.	.	1r	.	.
4E-/	.	.	.	4E-\)	.	.	.	.	.	.	.	.	.	.	.
4C/	.	.	.	4C/	-ni	.	.	.	.	.	.	.	.	.	.
4AA-/)	.	.	.	4AA-/	sunt	.	.	.	.	.	.	.	.	.	.
!!LO:LB:g=original
=22	=22	=22	=22	=22	=22	=22	=22	=22	=22	=22	=22	=22	=22	=22	=22
2D-/	1r	1r	.	2D-/	.	.	2r	.	.	1r	.	.	1r	.	.
4C/	.	.	.	4C/	.	.	4r	.	.	.	.	.	.	.	.
!	!	!	!	!	!	!	!LO:TX:a:t=Solo:color=blue	!	!	!	!	!	!	!	!
(<4c/	.	.	.	4r	.	.	4cc\	et	.	.	.	.	.	.	.
=23	=23	=23	=23	=23	=23	=23	=23	=23	=23	=23	=23	=23	=23	=23	=23
4d-/	1r	1r	.	1r	.	.	(4dd-\	ple-	.	1r	.	.	1r	.	.
4c/	.	.	.	.	.	.	4cc\)	.	.	.	.	.	.	.	.
4A-/	.	.	.	.	.	.	4a-\	-ni	.	.	.	.	.	.	.
4E-/	.	.	.	.	.	.	4e-/	sunt	.	.	.	.	.	.	.
=24	=24	=24	=24	=24	=24	=24	=24	=24	=24	=24	=24	=24	=24	=24	=24
2B-/	1r	2r	.	1r	.	.	2b-/	coe-	.	2r	.	.	1r	.	.
4A-/)	.	4r	.	.	.	.	4a-/	-li	.	4r	.	.	.	.	.
!	!	!	!	!	!	!	!	!	!	!LO:TX:a:t=Solo:color=blue	!	!	!	!	!
4r	.	(>4a-/	.	.	.	.	4r	.	.	4a-/	et	.	.	.	.
=25	=25	=25	=25	=25	=25	=25	=25	=25	=25	=25	=25	=25	=25	=25	=25
*	*	*^	*	*	*	*	*	*	*	*	*	*	*	*	*
4r	1r	4b-/	4r	.	4r	.	.	4r	.	.	(4b-^/	ter-	.	4r	.	.
!	!	!	!	!	!	!	!	!	!	!	!	!	!	!LO:TX:a:t=Solo:color=blue	!	!
2A- 2E-/	.	4a-/	2c\	.	4E-\	et	.	4a-/	et	.	4a-/	.	.	4c/	et	.
.	.	4e-/)	.	.	4E-\	ter-	.	4a-/	ter-	.	4e-/)	.	.	4c//	ter-	.
4A- 4E-/	.	4e-/	4c\	.	4E-\	-ra	.	4a-/	-ra	.	4c/	-ra	.	4e-/	-ra	.
*v	*v	*	*	*	*	*	*	*	*	*	*	*	*	*	*	*
=26	=26	=26	=26	=26	=26	=26	=26	=26	=26	=26	=26	=26	=26	=26	=26
*	*	*	*	*	*ij	*	*	*ij	*	*	*ij	*	*	*	*
1A- [>1E-	(2f/	2.d-\	.	2E-\	glo-	.	2a-/	glo-	.	2d-/	glo-	.	2f/	glo-	.
.	4b-/	.	.	4E-\	-ri-	.	4a-/	-ri-	.	4d-/	-ri-	.	4b-\	-ri-	.
.	4dd-/	4f\	.	4E-\	-a	.	4a-/	-a	.	4f/	-a	.	4dd-\	-a	.
=27	=27	=27	=27	=27	=27	=27	=27	=27	=27	=27	=27	=27	=27	=27	=27
*^	*	*	*	*	*	*	*	*	*	*	*	*	*	*	*
(2A-/	1E-]	2cc/	(>1e-	.	1E-	tu-	.	(2a-/	tu-	.	1e-	tu-	.	2cc\	tu-	.
*	*	*	*	*	*	*Xij	*	*	*Xij	*	*	*Xij	*	*	*	*
!	!	!LO:N:vis=1	!	!	!	!	!	!	!	!	!	!	!	!	!	!
4G/	.	2b-/	.	.	.	.	.	4g/	.	.	.	.	.	2b-\	.	.
4F/	.	.	.	.	.	.	.	4f/)	.	.	.	.	.	.	.	.
=28	=28	=28	=28	=28	=28	=28	=28	=28	=28	=28	=28	=28	=28	=28	=28	=28
!	!	!	!LO:S:s=1:note:problem=note-level slur	!	!	!	!	!	!	!	!	!	!	!	!	!
2G/)	2E-\	2ee-/)	2B-<)	.	2E-\	-a	.	2g/	-a.	.	2B-/	-a	.	2ee-\	-a.	.
2r	2ryy	4r	2ryy	.	2r	.	.	2r	.	.	2r	.	.	4r	.	.
.	.	4ee-/	.	.	.	.	.	.	.	.	.	.	.	4ee-\	Ho-	.
*	*	*v	*v	*	*	*	*	*	*	*	*	*	*	*	*	*
*v	*v	*	*	*	*	*	*	*	*	*	*	*	*	*	*
!!LO:PB:g=original
=29	=29	=29	=29	=29	=29	=29	=29	=29	=29	=29	=29	=29	=29	=29
*	*^	*	*	*	*	*	*	*	*	*	*	*	*	*
1r	(4.gg/	1r	.	1r	.	.	1r	.	.	1r	.	.	4.gg\	-san-	.
.	8ff/	.	.	.	.	.	.	.	.	.	.	.	8ff\	-na	.
.	4dd-/	.	.	.	.	.	.	.	.	.	.	.	4dd-\	in	.
.	4b-/	.	.	.	.	.	.	.	.	.	.	.	4b-\	ex-	.
*	*v	*v	*	*	*	*	*	*	*	*	*	*	*	*	*
=30	=30	=30	=30	=30	=30	=30	=30	=30	=30	=30	=30	=30	=30	=30
*^	*	*	*	*	*	*	*	*	*	*	*	*	*	*
2r	1rGG	2g/	.	2r	.	.	2r	.	.	2r	.	.	2g/	-cel-	.
4r	.	4e-/)	.	4r	.	.	4r	.	.	4r	.	.	4e-/	-sis	.
4G 4E-\	.	(>4e-/	.	4E-\	.	.	4g/	.	.	4e-/	.	.	4e-/	ho-	.
=31	=31	=31	=31	=31	=31	=31	=31	=31	=31	=31	=31	=31	=31	=31	=31
2F 2BB-/	1rGG	2a- 2dn/	.	2BB-/	.	.	2f/	.	.	2dn/	.	.	(2a-/	-san-	.
2G 2E-/	.	2b- 2d-X/	.	2E-\	.	.	2g/	.	.	2d-X/	.	.	2b-/)	.	.
=32	=32	=32	=32	=32	=32	=32	=32	=32	=32	=32	=32	=32	=32	=32	=32
*	*	*	*	*^	*	*	*^	*	*	*^	*	*	*^	*	*
2A- 2E- 2AA-/	2rFF	2cc 2c/)	.	2AA-/	2rB	.	.	2a-/	2rgg	.	.	2c/	2ree	.	.	2cc\	2rgg	-na	.
4rA	4rFF	4r	.	4r	2ryy	.	.	4r	2ryy	.	.	4r	2ryy	.	.	4r	2ryy	.	.
!	!	!	!	!LO:TX:a:i:t=tutti	!	!	!LO:DY:b:rj	!LO:TX:a:i:t=tutti	!	!	!LO:DY:b:rj	!LO:TX:a:i:t=tutti	!	!	!LO:DY:b:rj	!LO:TX:a:i:t=tutti	!	!	!
4c/	4c 4C\	4a- 4e-/	.	4c\	.	.	ff	4ee-\	.	ho-	ff	4a-/	.	ho-	ff	4a-/	.	Ho-	.
*	*	*	*	*v	*v	*	*	*	*	*	*	*v	*v	*	*	*v	*v	*	*
*	*	*	*	*	*	*	*v	*v	*	*	*	*	*	*	*	*
=33	=33	=33	=33	=33	=33	=33	=33	=33	=33	=33	=33	=33	=33	=33	=33
*	*^	*^	*	*	*	*	*	*	*	*	*	*	*	*	*
*	*	*	*	*	*	*	*	*	*	*ij	*	*	*	*	*	*	*
4d-/	2ryy	4D-\	2a-/	4f\	.	4d-\	.	.	4ff\	-san-	.	4.a-/	-san-	.	2a-/	-san-	.
[4c/	.	4C\	.	4e-\	.	4c\	.	.	4ee-\	-na	.	.	.	.	.	.	.
.	.	.	.	.	.	.	.	.	.	.	.	8a-/	-na	.	.	.	.
2c/]	4A-/	4AA-\	4cc/	2a- 2e-\	.	4A-\	.	.	4cc\	in	.	4a-/	in	.	4cc\	-na	.
.	4E-/	4EE-\	4ee-/	.	.	4E-\	.	.	4cc\	ex-	.	4a-/	ex-	.	4ee-\	ho-	.
=34	=34	=34	=34	=34	=34	=34	=34	=34	=34	=34	=34	=34	=34	=34	=34	=34	=34
[2e- [2c 2A-/	4.C 4.CC\	4.C/	2.aa-/	[1a-	.	4.C\	.	.	2ee-\	-cel-	.	2a-/	-cel-	.	2.aa- 2.ee-/	-san-	.
.	8EE-\	8E-/	.	.	.	8E-\	.	.	.	.	.	.	.	.	.	.	.
4e-_ 4c/] 4A-/	4AA-\	4ryy	.	.	.	8A-\	.	.	8cc\	-sis	.	8a-/	-sis,	.	.	.	.
.	.	.	.	.	.	8r	.	.	8r	.	.	8r	.	.	.	.	.
4e-] 4c/	4C\	4ryy	4cc/	.	.	4c\	.	.	4ee- 4cc\	ho-	.	4a-/	ho-	.	4cc\	-na	.
*	*	*	*	*	*	*	*	*	*	*Xij	*	*	*	*	*	*	*
*v	*v	*v	*	*	*	*	*	*	*	*	*	*	*	*	*	*	*
=35	=35	=35	=35	=35	=35	=35	=35	=35	=35	=35	=35	=35	=35	=35	=35
!	!	!	!	!	!	!	!	!LO:S:s=2:note:problem=note-level slur	!	!	!	!	!	!	!
1c 1A- [1E- [1EE-	2ee-/	1a-]	.	[1E-	.	.	(1ee- (>1cc	-san-	.	(>[>1a-	-san-	.	2ee-\	ho-	.
.	[2ff/	.	.	.	.	.	.	.	.	.	.	.	([2ff\	-san-	.
=36	=36	=36	=36	=36	=36	=36	=36	=36	=36	=36	=36	=36	=36	=36	=36
1d- 1B- 1E-] 1EE-]	2ff/]	2a-\	.	1E-]	.	.	1dd-) 1b-)	.	.	2a-/]	.	.	2ff\]	.	.
.	2ee-/	2g\	.	.	.	.	.	.	.	2g/)	.	.	2ee-\)	.	.
*	*v	*v	*	*	*	*	*	*	*	*	*	*	*	*	*
!!LO:LB:g=original
=37	=37	=37	=37	=37	=37	=37	=37	=37	=37	=37	=37	=37	=37	=37
*^	*	*	*	*	*	*^	*	*	*	*	*	*	*	*
2c 2A-/	2AA-\	2a-/	.	2AA-/	na!	.	2cc/	2a-\	-na.	.	2a-/	-na.	.	2a-/	-na.	.
4r	4ryy	2r	.	4r	.	.	2r	2ryy	.	.	2r	.	.	2r	.	.
!	!	!	!	!	!	!LO:DY:a	!	!	!	!	!	!	!	!	!	!
4E-/	4CC\	.	.	4C/	ho-	f	.	.	.	.	.	.	.	.	.	.
*	*	*	*	*	*	*	*v	*v	*	*	*	*	*	*	*	*
=38	=38	=38	=38	=38	=38	=38	=38	=38	=38	=38	=38	=38	=38	=38	=38
4.D-/	4.DD-\	1r	.	4.D-^/	-san-	.	1r	.	.	1r	.	.	1r	.	.
8C/	8CC\	.	.	8C/	-na	.	.	.	.	.	.	.	.	.	.
4D-/	4DD-\	.	.	4D-/	in	.	.	.	.	.	.	.	.	.	.
4Dn/	4DDn\	.	.	4Dn/	ex-	.	.	.	.	.	.	.	.	.	.
=39	=39	=39	=39	=39	=39	=39	=39	=39	=39	=39	=39	=39	=39	=39	=39
4.E-/	4.EE-\	1r	.	(4.E-^\	-cel-	.	1r	.	.	1r	.	.	1r	.	.
8Dn/	8DDn\	.	.	8Dn\)	.	.	.	.	.	.	.	.	.	.	.
4E-/	4EE-\	.	.	8E-\	-sis,	.	.	.	.	.	.	.	.	.	.
.	.	.	.	8r	.	.	.	.	.	.	.	.	.	.	.
4En/	4EEn\	.	.	4En\	ho-	.	.	.	.	.	.	.	.	.	.
=40	=40	=40	=40	=40	=40	=40	=40	=40	=40	=40	=40	=40	=40	=40	=40
4.F/	4.FF\	1r	.	4.F^\	-san-	.	1r	.	.	1r	.	.	1r	.	.
8En/	8EEn\	.	.	8En\	-na	.	.	.	.	.	.	.	.	.	.
4F/	4FF\	.	.	4F\	in	.	.	.	.	.	.	.	.	.	.
4G/	4GG\	.	.	4G\	ex-	.	.	.	.	.	.	.	.	.	.
=41	=41	=41	=41	=41	=41	=41	=41	=41	=41	=41	=41	=41	=41	=41	=41
4.A-/	4.AA-\	1r	.	(4.A-^\	-cel-	.	1r	.	.	1r	.	.	1r	.	.
8G/	8GG\	.	.	8G\)	.	.	.	.	.	.	.	.	.	.	.
4A-/	4AA-\	.	.	4A-\	-sis	.	.	.	.	.	.	.	.	.	.
!	!	!	!	!	!	!LO:DY:b	!	!	!	!	!	!	!	!	!
4B-/	4BB-\	.	f	4B-\	ho-	f	.	.	f	.	.	f	.	.	f
=42||	=42||	=42||	=42||	=42||	=42||	=42||	=42||	=42||	=42||	=42||	=42||	=42||	=42||	=42||	=42||
!	!	!	!	!	!	!	!LO:ACC:color=blue	!	!	!	!	!	!LO:TX:a:t=tempo Imo:color=blue	!	!
2Bn/	2BBn\	2bn 2f#X 2dn/	.	2Bn^\	-san-	.	2ddn^\	San-	.	2f#X^/	San-	.	2bn^\	San-	.
*	*	*	*	*	*	*	*	*ij	*	*	*ij	*	*	*	*
2An/	2AAn\	2cc#X 2an 2en/	.	2An^\	-na,	.	2een^\	-ctus	.	2an^/	-ctus	.	2cc#X^\	-ctus	.
*v	*v	*	*	*	*	*	*	*	*	*	*	*	*	*	*
=43	=43	=43	=43	=43	=43	=43	=43	=43	=43	=43	=43	=43	=43	=43
1An 1Dn 1DDn	1ddn 1an 1f#X 1dn	.	2.dn 2.Dn^\	San-	.	2.ff#X^\	San-	.	2.an^/	San-	.	2.ddn^\	San-	.
.	.	.	4D\	-ctus	.	4ddn/	-ctus	.	4f#X/	-ctus	.	4dd\	-ctus	.
=44	=44	=44	=44	=44	=44	=44	=44	=44	=44	=44	=44	=44	=44	=44
*^	*	*	*	*	*	*	*	*	*	*	*	*	*	*
2G/	2GG\	2bn 2g 2dn\	.	4.G\	.	.	4.ddn\	San-	.	4.g/	San-	.	4.bn\	San-	.
.	.	.	.	8G\	.	.	8cc\	-ctus	.	8g/	-ctus	.	8b\	-ctus	.
4.G 4.C/	4.CC\	4.cc 4.g 4.en 4.c/	.	4.C/	.	.	4.een\	Do-	.	4.g/	Do-	.	4.cc\	Do-	.
8F/	8FF\	8an 8f 8c/	.	8F\	.	.	8ff\	-mi-	.	8fn/	-mi-	.	8an/	-mi-	.
=45	=45	=45	=45	=45	=45	=45	=45	=45	=45	=45	=45	=45	=45	=45	=45
1F;	1FF	1an 1f 1c;	>]	1F	.	.	1ff;	-nus	.	1c;	-nus	.	1an;	-nus	.
*	*	*	*	*	*	*	*	*Xij	*	*	*Xij	*	*	*	*
*v	*v	*	*	*	*	*	*	*	*	*	*	*	*	*	*
!!LO:PB:g=original
=46	=46	=46	=46	=46	=46	=46	=46	=46	=46	=46	=46	=46	=46	=46
*	*^	*	*	*	*	*	*	*	*	*	*	*	*	*
!	!	!LO:N:vis=2:xstem	!	!LO:TX:a:i:t=Solo	!	!	!LO:TX:a:i:t=Solo	!	!	!LO:TX:a:i:t=Solo	!	!	!LO:TX:a:i:t=Soli	!	!
2F/	2an 2f/	2c/	.	2F\	Do-	.	2cc\	Do-	.	2f/	Do-	.	2an/	Do-	.
*	*	*	*	*	*ij	*	*	*ij	*	*	*ij	*	*	*	*
2E-X/	4.b-X/	2g 2d-X\	.	4.E-X\	-mi-	.	4.dd-X\	-mi-	.	4.g/	-mi-	.	4.b-\	-mi-	.
.	8bn/	.	.	8E-\	-nus	.	8dd-\	-nus	.	8g/	-nus	.	8bn\	-nus	.
*	*v	*v	*	*	*	*	*	*	*	*	*	*	*	*	*
=47	=47	=47	=47	=47	=47	=47	=47	=47	=47	=47	=47	=47	=47	=47
2A-X/	2cc 2a-X 2c/	.	2A-X\	De-	.	2cc\	De-	.	2a-X/	De-	.	2cc\	De-	.
2A- 2C/	2a- 2e-/	.	2C/	-us	.	2ee-\	-us	.	2a-/	-us	.	2a-X/	-us	.
=48||	=48||	=48||	=48||	=48||	=48||	=48||	=48||	=48||	=48||	=48||	=48||	=48||	=48||	=48||
*^	*	*	*	*	*	*	*	*	*	*	*	*	*	*
!LO:N:vis=1	!LO:TX:a:t=P:problem=jedna wspólna nuta	!	!	!	!	!	!	!	!	!	!	!	!LO:TX:a:i:t=piu moſso.	!	!
(8D-X/L	1D-X	1ff 1a-	.	2.D-\	Sa-	.	2.b-\	Sa-	.	2.a-/	Sa-	.	2.ff\	Sa-	.
8F/	.	.	.	.	.	.	.	.	.	.	.	.	.	.	.
8A-/	.	.	.	.	.	.	.	.	.	.	.	.	.	.	.
8B-/J	.	.	.	.	.	.	.	.	.	.	.	.	.	.	.
4d-X/	.	.	.	.	.	.	.	.	.	.	.	.	.	.	.
8f>\L	.	.	.	4D-\	-ba-	.	4b-\	-ba-	.	4a-/	-ba-	.	4ff\	-ba-	.
8a->\J)	.	.	.	.	.	.	.	.	.	.	.	.	.	.	.
*v	*v	*	*	*	*	*	*	*	*	*	*	*	*	*	*
=49	=49	=49	=49	=49	=49	=49	=49	=49	=49	=49	=49	=49	=49	=49
*	*^	*	*	*	*	*	*	*	*	*	*	*	*	*
4E-/	4ee-/	4g\	.	4E-\	-oth!	.	4b-\	-oth!	.	4a-/	-oth!	.	4ee-\	-oth!	.
4ryy	4r	4ryy	.	4r	.	.	4r	.	.	4r	.	.	4r	.	.
!	!	!	!	!LO:TX:a:i:t=tutti	!	!LO:DY:a:rj	!LO:TX:a:i:t=tutti	!	!LO:DY:b:rj	!LO:TX:a:i:t=tutti	!	!LO:DY:a	!LO:TX:a:i:t=tutti	!	!LO:DY:a:rj
2d- 2B- 2E-/	2ee- 2b- 2g 2e-/	2ryy	.	2E-\	Ho-	ff	2ee-\	Ho-	ff	2e-/	Ho-	ff	2ee-\	Ho-	ff
*	*v	*v	*	*	*	*	*	*	*	*	*	*	*	*	*
=50	=50	=50	=50	=50	=50	=50	=50	=50	=50	=50	=50	=50	=50	=50
*^	*	*	*	*	*	*	*	*	*	*	*	*	*	*
8cL 8A-/	1AA-	1aa- 1ee- 1cc 1a-	.	[1A-	-san-	.	[1ee-	-san-	.	[1cc	-san-	.	[1aa-	-san-	.
*	*	*	*	*	*Xij	*	*	*Xij	*	*	*Xij	*	*	*	*
8E-/	.	.	.	.	.	.	.	.	.	.	.	.	.	.	.
8A-/	.	.	.	.	.	.	.	.	.	.	.	.	.	.	.
8c/J	.	.	.	.	.	.	.	.	.	.	.	.	.	.	.
!LO:TX:t=P:problem=mixed beam	!	!	!	!	!	!	!	!	!	!	!	!	!	!	!
8e-/L	.	.	.	.	.	.	.	.	.	.	.	.	.	.	.
8c/	.	.	.	.	.	.	.	.	.	.	.	.	.	.	.
8A-/	.	.	.	.	.	.	.	.	.	.	.	.	.	.	.
8a->\J	.	.	.	.	.	.	.	.	.	.	.	.	.	.	.
*v	*v	*	*	*	*	*	*	*	*	*	*	*	*	*	*
=51	=51	=51	=51	=51	=51	=51	=51	=51	=51	=51	=51	=51	=51	=51
1AA-	8e-\L	.	1A-]	.	.	1ee-]	.	.	1cc]	.	.	1aa-]	.	.
.	8c\	.	.	.	.	.	.	.	.	.	.	.	.	.
.	8cc\	.	.	.	.	.	.	.	.	.	.	.	.	.
.	16a-\L	.	.	.	.	.	.	.	.	.	.	.	.	.
.	16e-\JJ	.	.	.	.	.	.	.	.	.	.	.	.	.
.	8c</L	.	.	.	.	.	.	.	.	.	.	.	.	.
.	8A-</	.	.	.	.	.	.	.	.	.	.	.	.	.
.	8E-</	.	.	.	.	.	.	.	.	.	.	.	.	.
.	8C</J	.	.	.	.	.	.	.	.	.	.	.	.	.
=52	=52	=52	=52	=52	=52	=52	=52	=52	=52	=52	=52	=52	=52	=52
*	*^	*	*	*	*	*	*	*	*	*	*	*	*	*
(>1E- [1AA-	(2a-/	[1c	.	2AA-/	-na!	.	2a-/	-na!	.	2a-/	-na!	.	2a-/	-na!	.
.	4e-/	.	.	2r	.	.	2r	.	.	2r	.	.	2r	.	.
.	4cc/)	.	.	.	.	.	.	.	.	.	.	.	.	.	.
=53	=53	=53	=53	=53	=53	=53	=53	=53	=53	=53	=53	=53	=53	=53	=53
*^	*	*	*	*	*	*	*	*	*	*	*	*	*	*	*
2A-/	1AA-])	(2cc/	4c\]	.	1r	.	.	1r	.	.	1r	.	.	1r	.	.
.	.	.	4e-\	.	.	.	.	.	.	.	.	.	.	.	.	.
2E-/	.	4a-/	2c\	.	.	.	.	.	.	.	.	.	.	.	.	.
.	.	4e-/)	.	.	.	.	.	.	.	.	.	.	.	.	.	.
*v	*v	*	*	*	*	*	*	*	*	*	*	*	*	*	*	*
*	*v	*v	*	*	*	*	*	*	*	*	*	*	*	*	*
=54	=54	=54	=54	=54	=54	=54	=54	=54	=54	=54	=54	=54	=54	=54
1A- 1E- 1AA-;	1c;	.	1r;	.	.	1r;	.	.	1r;	.	.	1r;	.	.
==	==	==	==	==	==	==	==	==	==	==	==	==	==	==
*-	*-	*-	*-	*-	*-	*-	*-	*-	*-	*-	*-	*-	*-	*-
!!!system-decoration: ([s1,s2,s3,s4][s5,s6])
!!!RDF**kern: > = above
!!!RDF**kern: < = below
!!!RDF**kern: @ = marked note, color=blue
!!!ENC: Marta Lawrence
!!!END: 2021-07-11
!!!ENC: Tomasz Grochalski
!!!END: 2021-07-08
!!!YEC: Copyright 2022 Narodowy Instytut Fryderyka Chopina (https://polishscores.org)
!!!YEM: Licence CC BY 4.0 (https://creativecommons.org/licenses/by/4.0)
